src/.vuepress/public/brands/wolplein.svg

<svg width="190" height="38" viewBox="0 0 190 38" fill="none" xmlns="http://www.w3.org/2000/svg">
<path d="M19.2397 36.9245C29.2215 36.9245 37.3133 28.8327 37.3133 18.8509C37.3133 8.86907 29.2215 0.777222 19.2397 0.777222C9.25786 0.777222 1.16602 8.86907 1.16602 18.8509C1.16602 28.8327 9.25786 36.9245 19.2397 36.9245Z" fill="white"/>
<path d="M29.9284 27.8554L26.5598 24.6164C27.7906 22.9969 28.568 21.0535 28.568 18.851C28.568 13.6685 24.3573 9.52262 19.2397 9.52262C18.9158 9.52262 18.5919 9.52262 18.268 9.5874L16.9076 4.72889L17.9441 4.46977L17.6849 3.43329L14.6403 4.21065L14.8346 5.18235L15.8711 4.92323L17.2315 9.71696C15.9359 9.97608 14.7698 10.5591 13.7334 11.3365L10.5591 7.70877L11.3365 7.06097L10.6239 6.21883L8.22705 8.2918L8.93963 9.13394L9.71699 8.42136L12.8264 12.049C11.0126 13.7333 9.84655 16.195 9.84655 18.9157C9.84655 24.0981 14.0573 28.2441 19.1749 28.2441C20.017 28.2441 20.7944 28.1145 21.5717 27.9202L22.7378 32.6491C22.9321 33.2321 23.6447 33.7504 23.6447 33.7504C23.7095 33.7504 23.9038 33.0378 23.7743 32.4548L22.6082 27.661C23.8391 27.2076 24.9403 26.4302 25.8472 25.5233L29.0862 28.6975C29.5397 29.151 30.3818 29.151 30.4466 29.151C30.5114 29.0862 30.3818 28.3088 29.9284 27.8554ZM27.5315 18.4623C26.3007 16.0654 24.2925 13.2151 21.8956 11.0126C25.0051 12.049 27.3372 14.9641 27.5315 18.4623ZM16.5189 11.0126C16.9076 11.2069 17.2963 11.466 17.6849 11.7251L18.0736 12.049C17.2315 12.5025 16.3893 12.8264 15.612 13.0207C15.8063 12.1138 16.0654 11.466 16.2598 11.0773C16.3246 11.0773 16.4541 11.0773 16.5189 11.0126ZM16.0654 23.0617C16.0007 22.8025 15.9359 22.5434 15.8711 22.3491L15.8063 21.9604C18.7862 21.4422 21.3774 20.3409 23.7095 18.6566C23.7743 18.7862 23.8391 18.9157 23.9686 19.1101L24.2925 19.7579C21.6365 21.6365 18.9158 22.7378 16.0654 23.0617ZM15.5472 20.7944C15.4824 20.4705 15.4176 20.2113 15.4176 19.8874L15.3529 19.4988C18.268 18.851 20.8592 17.4906 22.3491 16.5836C22.4139 16.6484 22.4787 16.778 22.5435 16.8428L23.0617 17.6201C20.8592 19.2396 18.3975 20.3409 15.5472 20.7944ZM15.2881 18.3327C15.2881 17.944 15.2233 17.6201 15.2233 17.2962V16.9075C17.4258 16.4541 19.2397 15.7415 20.7944 14.6402C20.9239 14.7698 20.9887 14.8994 21.1183 15.0289L21.6365 15.6767C19.6283 16.9075 17.2963 17.8793 15.2881 18.3327ZM15.2881 15.7415C15.2881 15.288 15.3529 14.8994 15.4176 14.5107V14.3163C16.6485 14.122 17.8793 13.6685 19.0453 12.8912C19.2397 13.0207 19.3692 13.2151 19.5636 13.3446L20.017 13.7981C18.6566 14.705 17.1667 15.288 15.2881 15.7415ZM10.9478 18.851C10.9478 17.4906 11.2717 16.2597 11.8547 15.1585C11.7252 17.8792 12.1139 21.3126 13.0208 24.3573C11.7252 22.8673 10.9478 20.9239 10.9478 18.851ZM14.6403 25.7824C12.8912 21.7661 12.5025 16.4541 13.0208 13.3446C13.539 12.7616 14.122 12.3082 14.7698 11.9195C13.7981 15.1585 13.7981 21.7661 16.3246 26.6893C15.7415 26.4302 15.1585 26.1063 14.6403 25.7824ZM16.4541 24.2277C19.3044 23.839 22.09 22.673 24.746 20.7944C24.8108 20.9887 24.9403 21.183 25.0051 21.3774L25.1994 21.8956C22.9969 23.9686 20.3409 25.0698 16.9076 25.329C16.8428 25.1994 16.778 25.0051 16.7132 24.8755L16.4541 24.2277ZM25.5233 24.0981C25.5233 24.0981 25.5233 24.2277 25.4586 24.2925C23.9686 26.0415 21.7013 27.1428 19.1749 27.1428C18.7862 27.1428 18.3327 27.1428 17.9441 27.078L17.6202 27.0132L17.361 26.495C20.5353 26.1711 23.256 25.0698 25.4586 23.1912C25.5881 23.5151 25.5881 23.9038 25.5233 24.0981ZM17.9441 10.6887C18.3327 10.6239 18.7862 10.6239 19.1749 10.6239C19.3692 10.6239 19.4988 10.6239 19.6931 10.6239C23.1913 13.2799 26.1064 17.6201 27.2724 20.6C27.2724 20.6 27.3372 20.7296 27.2724 20.7944C27.0781 21.5069 26.8189 22.2195 26.495 22.8025C25.912 19.4988 22.5435 13.7333 17.9441 10.6887Z" fill="#E32F82"/>
<path d="M47.2896 9.52258H51.7594L54.7393 21.5069H54.804L58.6908 9.52258H62.5129L66.3997 21.8308H66.4645L69.5739 9.52258H73.7198L68.2783 28.1792H64.5858L60.4399 15.2232H60.3751L56.2292 28.1792H52.6663L47.2896 9.52258Z" fill="white"/>
<path d="M73.9141 21.766C73.9141 20.7295 74.1084 19.8226 74.4971 18.9805C74.8858 18.1383 75.404 17.4257 75.987 16.8427C76.6348 16.2597 77.4122 15.8062 78.2543 15.4823C79.0965 15.1584 80.0682 15.0289 81.0399 15.0289C82.0116 15.0289 82.9833 15.1584 83.8254 15.4823C84.6676 15.8062 85.4449 16.2597 86.0927 16.8427C86.7405 17.4257 87.2588 18.1383 87.5827 18.9805C87.9713 19.8226 88.1657 20.7295 88.1657 21.766C88.1657 22.8025 87.9713 23.7094 87.5827 24.5515C87.194 25.3937 86.6757 26.1063 86.0927 26.6893C85.4449 27.2723 84.6676 27.7258 83.8254 28.0497C82.9833 28.3736 82.0116 28.5031 81.0399 28.5031C80.0682 28.5031 79.0965 28.3736 78.2543 28.0497C77.4122 27.7258 76.6348 27.2723 75.987 26.6893C75.3392 26.1063 74.821 25.3937 74.4971 24.5515C74.1084 23.7094 73.9141 22.8025 73.9141 21.766ZM77.8656 21.766C77.8656 22.7377 78.1248 23.5151 78.7078 24.0981C79.2908 24.6811 80.0682 25.005 81.0399 25.005C82.0116 25.005 82.8537 24.6811 83.372 24.0981C83.955 23.5151 84.2141 22.7377 84.2141 21.766C84.2141 20.7943 83.955 20.0169 83.372 19.4339C82.7889 18.8509 82.0116 18.527 81.0399 18.527C80.0682 18.527 79.2908 18.8509 78.7078 19.4339C78.1248 20.0169 77.8656 20.7943 77.8656 21.766Z" fill="white"/>
<path d="M90.9514 8.22699H94.903V28.1793H90.9514V8.22699Z" fill="white"/>
<path d="M98.4011 15.3528H102.029V17.0371H102.094C102.223 16.7779 102.482 16.5836 102.741 16.3245C103.001 16.0654 103.324 15.871 103.648 15.6767C103.972 15.4823 104.361 15.3528 104.75 15.2232C105.138 15.0936 105.592 15.0289 106.045 15.0289C107.017 15.0289 107.859 15.2232 108.636 15.5471C109.414 15.871 110.062 16.3245 110.645 16.9075C111.228 17.4905 111.616 18.2031 111.94 18.9805C112.264 19.7578 112.394 20.6647 112.394 21.6364C112.394 22.5434 112.264 23.3855 112.005 24.2276C111.746 25.0698 111.357 25.7824 110.839 26.4302C110.321 27.078 109.738 27.5962 109.025 27.9201C108.312 28.3088 107.47 28.5031 106.563 28.5031C105.721 28.5031 104.944 28.3736 104.231 28.1144C103.519 27.8553 102.936 27.4019 102.482 26.8188H102.353V34.2038H98.4011V15.3528ZM102.029 21.766C102.029 22.7377 102.288 23.5151 102.871 24.0981C103.454 24.6811 104.231 25.005 105.203 25.005C106.175 25.005 107.017 24.6811 107.535 24.0981C108.118 23.5151 108.377 22.7377 108.377 21.766C108.377 20.7943 108.118 20.0169 107.535 19.4339C106.952 18.8509 106.175 18.527 105.203 18.527C104.231 18.527 103.454 18.8509 102.871 19.4339C102.288 20.0169 102.029 20.7943 102.029 21.766Z" fill="white"/>
<path d="M115.114 8.22699H119.066V28.1793H115.114V8.22699Z" fill="white"/>
<path d="M134.354 25.9767C133.706 26.7541 132.929 27.4019 131.957 27.8553C130.985 28.3088 130.014 28.5031 128.977 28.5031C128.005 28.5031 127.034 28.3736 126.192 28.0497C125.349 27.7258 124.572 27.2723 123.924 26.6893C123.276 26.1063 122.758 25.3937 122.434 24.5515C122.046 23.7094 121.851 22.8025 121.851 21.766C121.851 20.7295 122.046 19.8226 122.434 18.9805C122.823 18.1383 123.341 17.4257 123.924 16.8427C124.572 16.2597 125.349 15.8062 126.192 15.4823C127.034 15.1584 128.005 15.0289 128.977 15.0289C129.884 15.0289 130.726 15.1584 131.504 15.4823C132.281 15.8062 132.864 16.2597 133.382 16.8427C133.9 17.4257 134.289 18.1383 134.613 18.9805C134.872 19.8226 135.066 20.7295 135.066 21.766V22.9968H125.868C125.997 23.7742 126.386 24.3572 126.904 24.8107C127.422 25.2641 128.07 25.4585 128.848 25.4585C129.495 25.4585 130.078 25.3289 130.467 25.005C130.921 24.7459 131.309 24.3572 131.633 23.9037L134.354 25.9767ZM130.985 20.3408C130.985 19.693 130.791 19.11 130.337 18.6566C129.884 18.2031 129.301 17.944 128.588 17.944C128.135 17.944 127.746 18.0088 127.422 18.1383C127.098 18.2679 126.775 18.4622 126.58 18.6566C126.321 18.8509 126.127 19.11 125.997 19.4339C125.868 19.693 125.803 20.0169 125.803 20.3408H130.985Z" fill="white"/>
<path d="M137.399 11.3365C137.399 10.6887 137.593 10.1704 138.046 9.71695C138.5 9.26349 139.018 9.06915 139.666 9.06915C140.314 9.06915 140.832 9.26349 141.285 9.71695C141.739 10.1704 141.933 10.6887 141.933 11.3365C141.933 11.9843 141.739 12.5025 141.285 12.956C140.832 13.4094 140.314 13.6038 139.666 13.6038C139.018 13.6038 138.5 13.4094 138.046 12.956C137.658 12.5025 137.399 11.9843 137.399 11.3365ZM137.723 15.3528H141.674V28.1793H137.723V15.3528Z" fill="white"/>
<path d="M145.043 15.3527H148.865V17.1018H148.93C149.059 16.8427 149.253 16.5836 149.448 16.3892C149.707 16.1301 149.966 15.9358 150.29 15.7414C150.614 15.5471 150.938 15.4175 151.391 15.288C151.78 15.1584 152.233 15.0936 152.687 15.0936C153.658 15.0936 154.501 15.2232 155.084 15.5471C155.731 15.871 156.185 16.2597 156.509 16.8427C156.833 17.3609 157.092 18.0087 157.221 18.7861C157.351 19.4987 157.416 20.3408 157.416 21.183V28.244H153.464V21.9603C153.464 21.5716 153.464 21.183 153.399 20.7943C153.399 20.4056 153.27 20.0169 153.14 19.693C153.011 19.3691 152.816 19.11 152.557 18.8509C152.298 18.6565 151.909 18.527 151.391 18.527C150.873 18.527 150.484 18.5918 150.16 18.7861C149.836 18.9804 149.577 19.2396 149.448 19.4987C149.253 19.8226 149.189 20.1465 149.124 20.5352C149.059 20.9238 149.059 21.3125 149.059 21.766V28.1792H145.108V15.3527H145.043Z" fill="white"/>
<path d="M160.59 25.912C160.59 25.5881 160.655 25.2642 160.784 24.9403C160.914 24.6164 161.108 24.3572 161.302 24.1629C161.497 23.9686 161.756 23.7742 162.08 23.6447C162.404 23.5151 162.728 23.4503 163.051 23.4503C163.375 23.4503 163.699 23.5151 164.023 23.6447C164.347 23.7742 164.606 23.9686 164.801 24.1629C164.995 24.3572 165.189 24.6164 165.319 24.9403C165.448 25.2642 165.513 25.5881 165.513 25.912C165.513 26.2359 165.448 26.5598 165.319 26.8837C165.189 27.2076 164.995 27.4667 164.801 27.661C164.606 27.8554 164.347 28.0497 164.023 28.1793C163.699 28.3088 163.375 28.3736 163.051 28.3736C162.728 28.3736 162.404 28.3088 162.08 28.1793C161.756 28.0497 161.497 27.8554 161.302 27.661C161.108 27.4667 160.914 27.2076 160.784 26.8837C160.655 26.5598 160.59 26.2359 160.59 25.912Z" fill="white"/>
<path d="M168.623 15.3527H172.445V17.1018H172.509C172.639 16.8427 172.833 16.5836 173.028 16.3892C173.287 16.1301 173.546 15.9358 173.87 15.7414C174.194 15.5471 174.518 15.4175 174.971 15.288C175.36 15.1584 175.813 15.0936 176.267 15.0936C177.238 15.0936 178.08 15.2232 178.663 15.5471C179.311 15.871 179.765 16.2597 180.089 16.8427C180.413 17.3609 180.672 18.0087 180.801 18.7861C180.931 19.5635 180.996 20.3408 180.996 21.183V28.244H177.044V21.9603C177.044 21.5716 177.044 21.183 176.979 20.7943C176.979 20.4056 176.85 20.0169 176.72 19.693C176.591 19.3691 176.396 19.11 176.137 18.8509C175.878 18.6565 175.489 18.527 174.971 18.527C174.453 18.527 174.064 18.5918 173.74 18.7861C173.416 18.9804 173.157 19.2396 173.028 19.4987C172.833 19.8226 172.768 20.1465 172.704 20.5352C172.639 20.9238 172.639 21.3125 172.639 21.766V28.1792H168.687V15.3527H168.623Z" fill="white"/>
<path d="M184.235 8.22699H188.186V28.1793H184.235V8.22699Z" fill="white"/>
</svg>

<svg width="190" height="38" fill="none" xmlns="http://www.w3.org/2000/svg"><path d="M19.24 36.925c9.982 0 18.073-8.092 18.073-18.074C37.313 8.869 29.221.777 19.24.777 9.258.777 1.166 8.87 1.166 18.851c0 9.982 8.092 18.074 18.074 18.074Z" fill="#fff"/><path d="m29.928 27.855-3.368-3.239c1.23-1.62 2.008-3.563 2.008-5.765 0-5.182-4.21-9.328-9.328-9.328-.324 0-.648 0-.972.064l-1.36-4.858 1.036-.26-.26-1.036-3.044.778.195.971 1.036-.259 1.36 4.794c-1.295.26-2.461.842-3.498 1.62L10.56 7.708l.777-.648-.712-.842-2.397 2.073.713.842.777-.713 3.11 3.628a9.38 9.38 0 0 0-2.98 6.867c0 5.182 4.21 9.328 9.328 9.328.842 0 1.62-.13 2.397-.324l1.166 4.73c.194.582.907 1.1.907 1.1.064 0 .259-.712.13-1.295l-1.167-4.794c1.231-.453 2.332-1.23 3.24-2.138l3.238 3.175c.454.453 1.296.453 1.36.453.065-.065-.064-.842-.518-1.296Zm-2.396-9.393c-1.231-2.397-3.24-5.247-5.636-7.45 3.11 1.037 5.441 3.952 5.636 7.45Zm-11.013-7.45c.389.195.777.454 1.166.713l.389.324c-.843.454-1.685.777-2.462.972.194-.907.453-1.555.648-1.944.065 0 .194 0 .259-.064Zm-.454 12.05c-.064-.26-.13-.519-.194-.713l-.065-.389c2.98-.518 5.571-1.62 7.903-3.303.065.13.13.259.26.453l.323.648c-2.655 1.879-5.376 2.98-8.227 3.304Zm-.518-2.268c-.065-.323-.13-.583-.13-.907l-.064-.388c2.915-.648 5.506-2.008 6.996-2.915.065.064.13.194.195.259l.518.777c-2.203 1.62-4.665 2.72-7.515 3.174Zm-.259-2.461c0-.389-.065-.713-.065-1.037v-.389c2.203-.453 4.017-1.165 5.571-2.267.13.13.195.26.324.389l.519.648c-2.009 1.23-4.34 2.202-6.349 2.656Zm0-2.591c0-.454.065-.843.13-1.231v-.195a9.04 9.04 0 0 0 3.627-1.425c.195.13.324.324.519.454l.453.453c-1.36.907-2.85 1.49-4.729 1.944Zm-4.34 3.109c0-1.36.324-2.591.907-3.692-.13 2.72.259 6.154 1.166 9.198a8.403 8.403 0 0 1-2.073-5.506Zm3.692 6.931c-1.749-4.016-2.138-9.328-1.62-12.437a7.34 7.34 0 0 1 1.75-1.426c-.972 3.24-.972 9.847 1.555 14.77a13.904 13.904 0 0 1-1.685-.907Zm1.814-1.554c2.85-.389 5.636-1.555 8.292-3.434.065.195.194.389.26.583l.193.519c-2.202 2.073-4.858 3.174-8.291 3.433-.065-.13-.13-.324-.195-.454l-.259-.647Zm9.07-.13s0 .13-.065.195c-1.49 1.748-3.758 2.85-6.284 2.85-.389 0-.842 0-1.23-.065l-.325-.065-.259-.518c3.174-.324 5.895-1.425 8.098-3.304.13.324.13.713.064.907Zm-7.58-13.41c.389-.064.842-.064 1.23-.064h.52c3.497 2.656 6.412 6.996 7.578 9.976 0 0 .065.13 0 .194-.194.713-.453 1.425-.777 2.008-.583-3.303-3.951-9.069-8.55-12.113Z" fill="#E32F82"/><path d="M47.29 9.523h4.47l2.98 11.984h.064l3.887-11.984h3.822L66.4 21.83h.064l3.11-12.308h4.146l-5.442 18.656h-3.692L60.44 15.223h-.065L56.23 28.18h-3.563L47.29 9.523Zm26.624 12.243c0-1.036.194-1.943.583-2.785a7.41 7.41 0 0 1 1.49-2.138 7.294 7.294 0 0 1 2.267-1.36c.843-.325 1.814-.454 2.786-.454s1.943.13 2.785.453a7.31 7.31 0 0 1 2.268 1.36 5.545 5.545 0 0 1 1.49 2.139c.388.842.583 1.748.583 2.785 0 1.037-.195 1.943-.583 2.786a7.41 7.41 0 0 1-1.49 2.137 7.293 7.293 0 0 1-2.268 1.36c-.842.325-1.813.454-2.785.454-.972 0-1.944-.13-2.786-.453a7.294 7.294 0 0 1-2.267-1.36 5.545 5.545 0 0 1-1.49-2.139c-.389-.842-.583-1.748-.583-2.785Zm3.952 0c0 .972.259 1.75.842 2.332.583.583 1.36.907 2.332.907.972 0 1.814-.324 2.332-.907.583-.583.842-1.36.842-2.332 0-.972-.259-1.75-.842-2.332-.583-.583-1.36-.907-2.332-.907-.972 0-1.75.324-2.332.907-.583.583-.842 1.36-.842 2.332ZM90.951 8.227h3.952v19.952h-3.952V8.227Zm7.45 7.126h3.628v1.684h.065c.129-.26.388-.453.647-.712.26-.26.583-.454.907-.648.324-.195.713-.324 1.102-.454a4.17 4.17 0 0 1 1.295-.194c.972 0 1.814.194 2.591.518a6.12 6.12 0 0 1 2.009 1.36c.583.584.971 1.296 1.295 2.073.324.778.454 1.685.454 2.656 0 .907-.13 1.75-.389 2.592a6.531 6.531 0 0 1-1.166 2.202c-.518.648-1.101 1.166-1.814 1.49-.713.389-1.555.583-2.462.583a6.78 6.78 0 0 1-2.332-.389 3.893 3.893 0 0 1-1.749-1.295h-.129v7.385h-3.952V15.353Zm3.628 6.413c0 .972.259 1.75.842 2.332.583.583 1.36.907 2.332.907.972 0 1.814-.324 2.332-.907.583-.583.842-1.36.842-2.332 0-.972-.259-1.75-.842-2.332-.583-.583-1.36-.907-2.332-.907-.972 0-1.749.324-2.332.907-.583.583-.842 1.36-.842 2.332Zm13.085-13.539h3.952v19.952h-3.952V8.227Zm19.24 17.75c-.648.777-1.425 1.425-2.397 1.878a6.87 6.87 0 0 1-2.98.648c-.972 0-1.943-.13-2.785-.453a7.29 7.29 0 0 1-2.268-1.36 5.544 5.544 0 0 1-1.49-2.139c-.388-.842-.583-1.748-.583-2.785 0-1.036.195-1.943.583-2.785a7.415 7.415 0 0 1 1.49-2.138 7.29 7.29 0 0 1 2.268-1.36c.842-.325 1.813-.454 2.785-.454.907 0 1.749.13 2.527.453.777.324 1.36.778 1.878 1.36.518.584.907 1.296 1.231 2.139.259.842.453 1.748.453 2.785v1.23h-9.198c.129.778.518 1.361 1.036 1.815.518.453 1.166.648 1.944.648.647 0 1.23-.13 1.619-.454.454-.26.842-.648 1.166-1.101l2.721 2.073Zm-3.369-5.636c0-.648-.194-1.231-.648-1.684a2.39 2.39 0 0 0-1.749-.713c-.453 0-.842.065-1.166.194-.324.13-.647.324-.842.519a1.772 1.772 0 0 0-.583.777 2.077 2.077 0 0 0-.194.907h5.182Zm6.414-9.005c0-.647.194-1.166.647-1.619.454-.454.972-.648 1.62-.648.648 0 1.166.194 1.619.648.454.453.648.972.648 1.62 0 .647-.194 1.165-.648 1.619-.453.453-.971.648-1.619.648s-1.166-.195-1.62-.648c-.388-.454-.647-.972-.647-1.62Zm.324 4.017h3.951v12.826h-3.951V15.353Zm7.32 0h3.822v1.749h.065c.129-.26.323-.518.518-.713a4.18 4.18 0 0 1 .842-.648c.324-.194.648-.323 1.101-.453.389-.13.842-.194 1.296-.194.971 0 1.814.13 2.397.453.647.324 1.101.713 1.425 1.296.324.518.583 1.166.712 1.943.13.713.195 1.555.195 2.397v7.061h-3.952V21.96c0-.388 0-.777-.065-1.166 0-.388-.129-.777-.259-1.101-.129-.324-.324-.583-.583-.842-.259-.194-.648-.324-1.166-.324-.518 0-.907.065-1.231.26-.324.193-.583.453-.712.712-.195.324-.259.648-.324 1.036-.065.389-.065.777-.065 1.231v6.413h-3.951V15.353h-.065Zm15.547 10.559c0-.324.065-.648.194-.972a2.34 2.34 0 0 1 .518-.777c.195-.194.454-.389.778-.518.324-.13.648-.195.971-.195a2.6 2.6 0 0 1 .972.195c.324.13.583.324.778.518.194.194.388.453.518.777.129.324.194.648.194.972 0 .324-.065.648-.194.972a2.34 2.34 0 0 1-.518.777 2.338 2.338 0 0 1-.778.518c-.324.13-.648.195-.972.195a2.6 2.6 0 0 1-.971-.195 2.338 2.338 0 0 1-.778-.518 2.34 2.34 0 0 1-.518-.777 2.61 2.61 0 0 1-.194-.972Zm8.033-10.559h3.822v1.749h.064c.13-.26.324-.518.519-.713a4.18 4.18 0 0 1 .842-.648c.324-.194.648-.323 1.101-.453.389-.13.842-.194 1.296-.194.971 0 1.813.13 2.396.453.648.324 1.102.713 1.426 1.296.324.518.583 1.166.712 1.943.13.777.195 1.555.195 2.397v7.061h-3.952V21.96c0-.388 0-.777-.065-1.166 0-.388-.129-.777-.259-1.101-.129-.324-.324-.583-.583-.842-.259-.194-.648-.324-1.166-.324-.518 0-.907.065-1.231.26-.324.193-.583.453-.712.712-.195.324-.26.648-.324 1.036-.065.389-.065.777-.065 1.231v6.413h-3.952V15.353h-.064Zm15.612-7.126h3.951v19.952h-3.951V8.227Z" fill="#fff"/></svg>
